svg/system/switch_line.svg

<?xml version="1.0" encoding="UTF-8"?>
<svg width="24px" height="24px" viewBox="0 0 24 24" version="1.1" xmlns="http://www.w3.org/2000/svg" xmlns:xlink="http://www.w3.org/1999/xlink">
    <title>switch_line</title>
    <g id="页面-1" stroke="none" stroke-width="1" fill="none" fill-rule="evenodd">
        <g id="System" transform="translate(-576.000000, -288.000000)" fill-rule="nonzero">
            <g id="switch_line" transform="translate(576.000000, 288.000000)">
                 <path d="M24,0 L24,24 L0,24 L0,0 L24,0 Z M12.5934901,23.257841 L12.5819402,23.2595131 L12.5108777,23.2950439 L12.4918791,23.2987469 L12.4918791,23.2987469 L12.4767152,23.2950439 L12.4056548,23.2595131 C12.3958229,23.2563662 12.3870493,23.2590235 12.3821421,23.2649074 L12.3780323,23.275831 L12.360941,23.7031097 L12.3658947,23.7234994 L12.3769048,23.7357139 L12.4804777,23.8096931 L12.4953491,23.8136134 L12.4953491,23.8136134 L12.5071152,23.8096931 L12.6106902,23.7357139 L12.6232938,23.7196733 L12.6232938,23.7196733 L12.6266527,23.7031097 L12.609561,23.275831 C12.6075724,23.2657013 12.6010112,23.2592993 12.5934901,23.257841 L12.5934901,23.257841 Z M12.8583906,23.1452862 L12.8445485,23.1473072 L12.6598443,23.2396597 L12.6498822,23.2499052 L12.6498822,23.2499052 L12.6471943,23.2611114 L12.6650943,23.6906389 L12.6699349,23.7034178 L12.6699349,23.7034178 L12.678386,23.7104931 L12.8793402,23.8032389 C12.8914285,23.8068999 12.9022333,23.8029875 12.9078286,23.7952264 L12.9118235,23.7811639 L12.8776777,23.1665331 C12.8752882,23.1545897 12.8674102,23.1470016 12.8583906,23.1452862 L12.8583906,23.1452862 Z M12.1430473,23.1473072 C12.1332178,23.1423925 12.1221763,23.1452606 12.1156365,23.1525954 L12.1099173,23.1665331 L12.0757714,23.7811639 C12.0751323,23.7926639 12.0828099,23.8018602 12.0926481,23.8045676 L12.108256,23.8032389 L12.3092106,23.7104931 L12.3186497,23.7024347 L12.3186497,23.7024347 L12.3225043,23.6906389 L12.340401,23.2611114 L12.337245,23.2485176 L12.337245,23.2485176 L12.3277531,23.2396597 L12.1430473,23.1473072 Z" id="MingCute" fill-rule="nonzero"></path>
                <path d="M16.5,12 C18.9853,12 21,14.0147 21,16.5 C21,18.9142914 19.0987811,20.8844901 16.7118372,20.9951021 L16.5,21 L7.5,21 C5.01472,21 3,18.9853 3,16.5 C3,14.0857086 4.90123781,12.1155099 7.28816441,12.0048979 L7.5,12 L16.5,12 Z M16.5,14 L7.5,14 C6.11929,14 5,15.1193 5,16.5 C5,17.825472 6.03153766,18.9100378 7.33562452,18.9946823 L7.5,19 L16.5,19 C17.8807,19 19,17.8807 19,16.5 C19,15.174528 17.9684531,14.0899622 16.6643744,14.0053177 L16.5,14 Z M7.5,15 C8.32843,15 9,15.6716 9,16.5 C9,17.3284 8.32843,18 7.5,18 C6.67157,18 6,17.3284 6,16.5 C6,15.6716 6.67157,15 7.5,15 Z M16.5,2 C18.9853,2 21,4.01472 21,6.5 C21,8.914272 19.0987811,10.884489 16.7118372,10.995102 L16.5,11 L7.5,11 C5.01472,11 3,8.98528 3,6.5 C3,4.085728 4.90123781,2.11551099 7.28816441,2.00489799 L7.5,2 L16.5,2 Z M16.5,4 L7.5,4 C6.11929,4 5,5.11929 5,6.5 C5,7.8254816 6.03153766,8.91003853 7.33562452,8.99468231 L7.5,9 L16.5,9 C17.8807,9 19,7.88071 19,6.5 C19,5.1745184 17.9684531,4.08996147 16.6643744,4.00531769 L16.5,4 Z M16.5,5 C17.3284,5 18,5.67157 18,6.5 C18,7.32843 17.3284,8 16.5,8 C15.6716,8 15,7.32843 15,6.5 C15,5.67157 15.6716,5 16.5,5 Z" id="形状" fill="#09244B"></path>
            </g>
        </g>
    </g>
</svg>

<svg xmlns="http://www.w3.org/2000/svg" width="24" height="24"><g fill="none" fill-rule="nonzero"><path d="M24 0v24H0V0h24ZM12.593 23.258l-.011.002-.071.035-.02.004-.014-.004-.071-.035c-.01-.004-.019-.001-.024.005l-.004.01-.017.428.005.02.01.013.104.074.015.004.012-.004.104-.074.012-.016.004-.017-.017-.427c-.002-.01-.009-.017-.017-.018Zm.265-.113-.013.002-.185.093-.01.01-.003.011.018.43.005.012.008.007.201.093c.012.004.023 0 .029-.008l.004-.014-.034-.614c-.003-.012-.01-.02-.02-.022Zm-.715.002a.023.023 0 0 0-.027.006l-.006.014-.034.614c0 .012.007.02.017.024l.015-.002.201-.093.01-.008.004-.011.017-.43-.003-.012-.01-.01-.184-.092Z"/><path fill="#09244B" d="M16.5 12a4.5 4.5 0 0 1 .212 8.995L16.5 21h-9a4.5 4.5 0 0 1-.212-8.995L7.5 12h9Zm0 2h-9a2.5 2.5 0 0 0-.164 4.995L7.5 19h9a2.5 2.5 0 0 0 .164-4.995L16.5 14Zm-9 1a1.5 1.5 0 1 1 0 3 1.5 1.5 0 0 1 0-3Zm9-13a4.5 4.5 0 0 1 .212 8.995L16.5 11h-9a4.5 4.5 0 0 1-.212-8.995L7.5 2h9Zm0 2h-9a2.5 2.5 0 0 0-.164 4.995L7.5 9h9a2.5 2.5 0 0 0 .164-4.995L16.5 4Zm0 1a1.5 1.5 0 1 1 0 3 1.5 1.5 0 0 1 0-3Z"/></g></svg>
